X:386
T: Carolan's Cup
N: O'Farrell's Pocket Companion v.4 (Sky ed. p.165)
N: "Irish"
M: 6/8
L: 1/8
Q: 100 % "slow"
K: Bm
d/e/| f>gf/e/ dfa| e2d/B/ A2 f/e/| dcB A<FA| Bba bfe|
f>gf/e/ dfa| e g/f/e/d/ c2e| dcB AFA| B3B2 :|
c| d>ed/c/ d2f| a>ba/f/ a2f| e>fe/d/ efa| Hb4 fa|
ba f/e/ dfa| e2d/B/ A2 f/e/| dcB AFA|B3B2 :|
